svg/fluentui-system-icons/ic_fluent_whiteboard_48_filled.svg

<svg width="48" height="48" viewBox="0 0 48 48" fill="none" xmlns="http://www.w3.org/2000/svg">
<path d="M42.7051 8.17944C41.0182 5.64904 37.438 5.29454 35.2876 7.44496L26.9448 15.7877C26.3809 16.3517 26.0114 17.0808 25.8901 17.8691L25.0146 23.5602C24.9515 23.9699 25.0957 24.3842 25.3995 24.6663C25.7033 24.9484 26.1272 25.0615 26.5311 24.9683L32.3017 23.6366C33.0154 23.4719 33.6653 23.1017 34.1711 22.5719L42.1813 14.1802C43.7384 12.5489 43.9561 10.0559 42.7051 8.17944ZM22.5437 23.1801C22.3546 24.4092 22.7871 25.6522 23.6985 26.4984C24.6099 27.3446 25.8815 27.6839 27.0933 27.4042L32.8639 26.0726C34.0534 25.798 35.1366 25.1812 35.9795 24.2981L44 15.8956V33.7503C44 37.202 41.2018 40.0003 37.75 40.0003H10.25C6.79822 40.0003 4 37.202 4 33.7503V24.1462C4.07284 24.1143 4.14368 24.075 4.21151 24.028C4.78962 23.6278 5.49886 23.0837 6.25735 22.5019C6.6014 22.238 6.9556 21.9663 7.31227 21.6967C8.48731 20.8086 9.74587 19.8985 10.9792 19.1704C12.2315 18.4311 13.3558 17.9419 14.2705 17.8024C15.1295 17.6713 15.6596 17.8572 16.0509 18.3138C16.2785 18.5792 16.3646 18.8096 16.3922 19.0189C16.4219 19.2438 16.3935 19.5241 16.2732 19.8868C16.0201 20.65 15.4755 21.4787 14.7999 22.5066L14.7645 22.5604C14.1332 23.521 13.365 24.6931 13.0459 25.8944C12.8786 26.5243 12.8177 27.215 12.9845 27.9273C13.1532 28.6476 13.5345 29.3025 14.1161 29.8841C14.952 30.72 15.9053 31.1161 16.8641 31.1846C17.7905 31.2508 18.6416 31.0066 19.3202 30.705C20.0029 30.4016 20.5742 30.012 20.9674 29.7081C21.1667 29.5542 21.3267 29.4172 21.4395 29.3161C21.4961 29.2654 21.5412 29.2234 21.5738 29.1924C21.5902 29.1769 21.6034 29.1641 21.6135 29.1543L21.6261 29.1419L21.6306 29.1374L21.6324 29.1356L21.6332 29.1348C21.6335 29.1345 21.6339 29.1341 20.75 28.2503L21.6332 29.1348C22.1213 28.6467 22.122 27.8545 21.6339 27.3664C21.1465 26.879 20.3567 26.8782 19.8684 27.3641L19.8667 27.3657L19.852 27.3799C19.8358 27.3953 19.8086 27.4207 19.7714 27.454C19.6968 27.5209 19.5833 27.6182 19.4388 27.7299C19.1446 27.9573 18.7471 28.2239 18.3048 28.4205C17.8584 28.6189 17.4282 28.7185 17.0422 28.6909C16.6884 28.6657 16.298 28.5305 15.8839 28.1164C15.5883 27.8208 15.4679 27.5678 15.4186 27.3572C15.3674 27.1386 15.3721 26.8753 15.4622 26.5361C15.6579 25.799 16.1715 24.9717 16.8538 23.9334L16.9735 23.7516C17.5732 22.8415 18.2859 21.76 18.6462 20.6737C18.8469 20.0684 18.9636 19.3961 18.8707 18.6919C18.7757 17.9719 18.4715 17.2963 17.9491 16.6868C16.8404 15.3933 15.3392 15.1104 13.8935 15.331C12.5036 15.543 11.0497 16.2257 9.70828 17.0176C8.34788 17.8207 6.99706 18.8012 5.80491 19.7022C5.40314 20.0059 5.0247 20.2963 4.66981 20.5685L4.66889 20.5693L4.66802 20.5699C4.43518 20.7486 4.21249 20.9194 4 21.0812V14.2503C4 10.7985 6.79822 8.00026 10.25 8.00026H31.1968L25.1771 14.0199C24.2371 14.9599 23.6213 16.1751 23.4192 17.489L22.5437 23.1801Z" fill="#212121"/>
</svg>

<svg xmlns="http://www.w3.org/2000/svg" width="48" height="48"><path d="M42.705 8.18c-1.687-2.531-5.267-2.885-7.417-.735l-8.343 8.343a3.75 3.75 0 0 0-1.055 2.081l-.875 5.691a1.25 1.25 0 0 0 1.516 1.408l5.77-1.331a3.75 3.75 0 0 0 1.87-1.065l8.01-8.392a4.82 4.82 0 0 0 .524-6Zm-20.161 15a3.75 3.75 0 0 0 4.55 4.224l5.77-1.331a6.25 6.25 0 0 0 3.116-1.775L44 15.896V33.75A6.25 6.25 0 0 1 37.75 40h-27.5A6.25 6.25 0 0 1 4 33.75v-9.604c.073-.032.144-.071.212-.118.578-.4 1.287-.944 2.045-1.526.344-.264.699-.536 1.055-.805 1.175-.888 2.434-1.799 3.667-2.527 1.253-.739 2.377-1.228 3.292-1.368.858-.13 1.389.055 1.78.512.228.265.314.496.341.705.03.225.002.505-.119.868-.253.763-.797 1.592-1.473 2.62l-.036.053c-.63.961-1.399 2.133-1.718 3.334-.167.63-.228 1.321-.061 2.033.168.72.55 1.375 1.131 1.957.836.836 1.79 1.232 2.748 1.3.927.067 1.778-.177 2.456-.479a8.173 8.173 0 0 0 1.647-.997 8.45 8.45 0 0 0 .646-.554l.013-.012.005-.005.001-.001.001-.001-.883-.885.883.885a1.25 1.25 0 0 0-1.765-1.77h-.001l-.015.015-.08.074a6.011 6.011 0 0 1-.333.276 5.684 5.684 0 0 1-1.134.69c-.447.199-.877.298-1.263.27-.354-.024-.744-.16-1.158-.574-.296-.295-.416-.548-.465-.759-.052-.218-.047-.482.043-.82.196-.738.71-1.565 1.392-2.604l.12-.181c.6-.91 1.312-1.992 1.672-3.078.2-.606.318-1.278.225-1.982-.095-.72-.4-1.396-.922-2.005-1.109-1.294-2.61-1.577-4.056-1.356-1.39.212-2.843.895-4.185 1.687-1.36.803-2.71 1.783-3.903 2.684-.402.304-.78.594-1.135.866l-.001.001h-.001c-.233.18-.456.35-.668.512v-6.83A6.25 6.25 0 0 1 10.25 8h20.947l-6.02 6.019a6.25 6.25 0 0 0-1.758 3.469l-.875 5.691Z"/></svg>
